priv/static/svgs/icons_new/sport-gymnastics.svg

<svg width="32" height="32" viewBox="0 0 32 32" fill="none" xmlns="http://www.w3.org/2000/svg">
<path d="M18.301 17.5551V12.0121M16.0433 18.1129L19.0965 27.1075C19.2997 27.7617 19.9553 28.1395 20.5595 27.9519C21.1645 27.7643 21.4896 27.0811 21.2864 26.4269L18.3425 17.6702M13.7054 17.7359L10.7714 26.4354C10.5691 27.0845 10.8951 27.7625 11.5001 27.9502C12.1052 28.1378 12.7599 27.7634 12.9622 27.1135L15.9711 18.1129M13.6999 17.6233V12.0121L6.16764 11.4236C5.45333 11.3656 4.93408 10.8351 5.00722 10.2381C5.08037 9.6402 5.71792 9.20267 6.43223 9.25981L12.9892 9.81931M19.0108 9.81931L25.5678 9.25981C26.2821 9.20267 26.9196 9.6402 26.9928 10.2381C27.0659 10.8351 26.5467 11.3656 25.8324 11.4236L18.3001 12.0121M20.797 15.2702C24.4688 15.509 27 16.0139 27 16.5981C27 17.4126 22.0748 18.0728 16 18.0728C9.92521 18.0728 5 17.4118 5 16.5973C5 16.0148 7.5213 15.5107 11.1804 15.271M18.3786 6.41881C18.3786 7.75469 17.3137 8.83763 16 8.83763C14.6863 8.83763 13.6214 7.75469 13.6214 6.41881C13.6214 5.08294 14.6863 4 16 4C17.3137 4 18.3786 5.08294 18.3786 6.41881Z" stroke="black" stroke-linecap="round"/>
</svg>

<svg width="32" height="32" viewBox="0 0 32 32" fill="none" xmlns="http://www.w3.org/2000/svg">
  <symbol id="item" viewBox="0 0 32 32" stroke-width="1" fill="none">
    <path d="M18.301 17.555v-5.543m-2.258 6.1 3.053 8.996c.204.654.86 1.032 1.463.844.605-.188.93-.87.727-1.525l-2.944-8.757m-4.637.066-2.934 8.7c-.202.648.124 1.326.73 1.514.604.188 1.259-.187 1.461-.837l3.01-9m-2.272-.49v-5.61l-7.532-.59c-.715-.057-1.234-.588-1.16-1.185.072-.598.71-1.035 1.424-.978l6.557.56m6.022 0 6.557-.56c.714-.057 1.352.38 1.425.978.073.597-.446 1.128-1.16 1.186l-7.533.588m2.497 3.258c3.672.239 6.203.744 6.203 1.328 0 .815-4.925 1.475-11 1.475s-11-.661-11-1.476c0-.582 2.521-1.086 6.18-1.326m7.199-8.852c0 1.336-1.065 2.419-2.379 2.419s-2.379-1.083-2.379-2.42C13.621 5.084 14.686 4 16 4s2.379 1.083 2.379 2.419Z" stroke="currentColor" stroke-linecap="round"/>
  </symbol>
</svg>
